src/Assets/Icons/express.svg

<?xml version="1.0"?>
<svg xmlns="http://www.w3.org/2000/svg" id="Layer_35" enable-background="new 0 0 64 64" height="512px" viewBox="0 0 64 64" width="512px" class=""><g><g fill="#f0bc5e"><circle cx="16" cy="13" r="8" data-original="#F0BC5E" class="active-path" style="fill:#5D5DC4" data-old_color="#F0BC5E"/><path d="m21 41h-10c-1.654 0-3-1.346-3-3s1.346-3 3-3h10c1.654 0 3 1.346 3 3s-1.346 3-3 3z" data-original="#F0BC5E" class="active-path" style="fill:#5D5DC4" data-old_color="#F0BC5E"/><path d="m41 17h10v2h-10z" data-original="#F0BC5E" class="active-path" style="fill:#5D5DC4" data-old_color="#F0BC5E"/><path d="m53 5h6v2h-6z" data-original="#F0BC5E" class="active-path" style="fill:#5D5DC4" data-old_color="#F0BC5E"/></g><path d="m60 23c1.654 0 3-1.346 3-3v-16c0-1.654-1.346-3-3-3h-7c-.94 0-1.837.449-2.399 1.2l-2.101 2.8h-8.5c-1.654 0-3 1.346-3 3v4h-9.051c-.511-6.149-5.669-11-11.949-11-6.617 0-12 5.383-12 12 0 6.279 4.85 11.438 11 11.949v6.073c-8.046.226-14 3.146-14 6.978v19c0 3.897 7.729 6 15 6s15-2.103 15-6v-6h6.051c.514 6.701 6.119 12 12.949 12 7.168 0 13-5.832 13-13 0-6.83-5.299-12.435-12-12.949v-14.051zm0-2h-20c-.552 0-1-.449-1-1v-9h22v9c0 .551-.448 1-1 1zm-20-14h9.5l2.701-3.601c.187-.25.486-.399.799-.399h7c.552 0 1 .449 1 1v5h-22v-1c0-.551.448-1 1-1zm-34 6c0-1.045.163-2.052.461-3h3.841c-.185.934-.302 1.93-.302 3s.117 2.066.303 3h-3.842c-.298-.948-.461-1.955-.461-3zm6 0c0-1.079.138-2.076.354-3h7.296c.214.923.35 1.92.35 3 0 1.079-.138 2.076-.354 3h-7.296c-.214-.923-.35-1.92-.35-3zm4.002-9.629c.777.79 2.104 2.367 3.018 4.629h-6.034c.916-2.256 2.242-3.836 3.016-4.629zm3.012 14.629c-.916 2.257-2.242 3.837-3.016 4.629-.777-.79-2.104-2.367-3.018-4.629zm2.153 0h3.48c-1.302 2.242-3.445 3.929-5.998 4.633.875-1.128 1.846-2.678 2.518-4.633zm4.833-5c0 1.045-.162 2.052-.461 3h-3.841c.185-.934.302-1.93.302-3s-.117-2.066-.303-3h3.841c.3.948.462 1.955.462 3zm-1.353-5h-3.48c-.672-1.955-1.643-3.505-2.518-4.633 2.553.704 4.696 2.391 5.998 4.633zm-11.296-4.633c-.875 1.128-1.846 2.678-2.518 4.633h-3.48c1.302-2.242 3.445-3.929 5.998-4.633zm-5.998 14.633h3.48c.672 1.955 1.643 3.505 2.518 4.633-2.553-.704-4.696-2.391-5.998-4.633zm8.647 15c7.661 0 13 2.635 13 5s-5.339 5-13 5-13-2.635-13-5 5.339-5 13-5zm-13 8.583c2.544 2.074 7.298 3.417 13 3.417s10.456-1.343 13-3.417v3.417c0 1.631-5.064 4-13 4s-13-2.369-13-4zm0 6.524c2.767 1.895 7.991 2.893 13 2.893s10.233-.998 13-2.893v2.893c0 1.631-5.064 4-13 4s-13-2.369-13-4zm13 12.893c-7.936 0-13-2.369-13-4v-2.893c2.767 1.895 7.991 2.893 13 2.893s10.233-.998 13-2.893v2.893c0 1.631-5.064 4-13 4zm26.35-3.112c.915-2.897 3.564-4.888 6.65-4.888h2c3.088 0 5.737 1.991 6.65 4.888-1.982 1.922-4.678 3.112-7.65 3.112s-5.668-1.19-7.65-3.112zm7.65-6.888c-2.206 0-4-1.794-4-4s1.794-4 4-4 4 1.794 4 4-1.794 4-4 4zm11-1c0 2.27-.692 4.381-1.874 6.135-1.035-2.194-2.9-3.858-5.165-4.639 1.247-1.101 2.039-2.706 2.039-4.496 0-3.309-2.691-6-6-6s-6 2.691-6 6c0 1.79.792 3.395 2.04 4.496-2.265.782-4.129 2.446-5.165 4.639-1.183-1.754-1.875-3.865-1.875-6.135 0-6.065 4.935-11 11-11s11 4.935 11 11zm-12-12.949c-6.37.488-11.461 5.579-11.949 11.949h-6.051v-11c0-3.832-5.954-6.752-14-6.978v-6.073c5.819-.484 10.466-5.13 10.949-10.949h9.051v6c0 1.654 1.346 3 3 3h9z" data-original="#000000" class="" style="fill:#000000"/><path d="m57 5h2v2h-2z" data-original="#000000" class="" style="fill:#000000"/><path d="m53 5h2v2h-2z" data-original="#000000" class="" style="fill:#000000"/><path d="m41 17h2v2h-2z" data-original="#000000" class="" style="fill:#000000"/><path d="m45 17h2v2h-2z" data-original="#000000" class="" style="fill:#000000"/><path d="m49 17h2v2h-2z" data-original="#000000" class="" style="fill:#000000"/><path d="m17 12h2v2h-2z" data-original="#000000" class="" style="fill:#000000"/><path d="m13 12h2v2h-2z" data-original="#000000" class="" style="fill:#000000"/></g> </svg>

<?xml version="1.0" encoding="UTF-8" standalone="no"?>
<svg
   xmlns:dc="http://purl.org/dc/elements/1.1/"
   xmlns:cc="http://creativecommons.org/ns#"
   xmlns:rdf="http://www.w3.org/1999/02/22-rdf-syntax-ns#"
   xmlns:svg="http://www.w3.org/2000/svg"
   xmlns="http://www.w3.org/2000/svg"
   xmlns:sodipodi="http://sodipodi.sourceforge.net/DTD/sodipodi-0.dtd"
   xmlns:inkscape="http://www.inkscape.org/namespaces/inkscape"
   id="Layer_35"
   enable-background="new 0 0 64 64"
   height="50"
   viewBox="0 0 6.25 6.25"
   width="50"
   class=""
   version="1.1"
   sodipodi:docname="express.svg"
   inkscape:version="0.92.4 (5da689c313, 2019-01-14)">
  <metadata
     id="metadata35">
    <rdf:RDF>
      <cc:Work
         rdf:about="">
        <dc:format>image/svg+xml</dc:format>
        <dc:type
           rdf:resource="http://purl.org/dc/dcmitype/StillImage" />
        <dc:title></dc:title>
      </cc:Work>
    </rdf:RDF>
  </metadata>
  <defs
     id="defs33" />
  <sodipodi:namedview
     pagecolor="#ffffff"
     bordercolor="#666666"
     borderopacity="1"
     objecttolerance="10"
     gridtolerance="10"
     guidetolerance="10"
     inkscape:pageopacity="0"
     inkscape:pageshadow="2"
     inkscape:window-width="1920"
     inkscape:window-height="1017"
     id="namedview31"
     showgrid="false"
     inkscape:zoom="5.2149125"
     inkscape:cx="109.60181"
     inkscape:cy="24.613134"
     inkscape:window-x="-8"
     inkscape:window-y="-8"
     inkscape:window-maximized="1"
     inkscape:current-layer="Layer_35" />
  <g
     id="g28"
     transform="matrix(0.09558022,0,0,0.09558022,0.08944925,0.01944652)">
    <g
       id="g10"
       style="fill:#f0bc5e">
      <circle
         cx="16"
         cy="13"
         r="8"
         data-original="#F0BC5E"
         class="active-path"
         style="fill:#5d5dc4"
         data-old_color="#F0BC5E"
         id="circle2" />
      <path
         d="M 21,41 H 11 C 9.346,41 8,39.654 8,38 8,36.346 9.346,35 11,35 h 10 c 1.654,0 3,1.346 3,3 0,1.654 -1.346,3 -3,3 z"
         data-original="#F0BC5E"
         class="active-path"
         style="fill:#5d5dc4"
         data-old_color="#F0BC5E"
         id="path4"
         inkscape:connector-curvature="0" />
      <path
         d="m 41,17 h 10 v 2 H 41 Z"
         data-original="#F0BC5E"
         class="active-path"
         style="fill:#5d5dc4"
         data-old_color="#F0BC5E"
         id="path6"
         inkscape:connector-curvature="0" />
      <path
         d="m 53,5 h 6 v 2 h -6 z"
         data-original="#F0BC5E"
         class="active-path"
         style="fill:#5d5dc4"
         data-old_color="#F0BC5E"
         id="path8"
         inkscape:connector-curvature="0" />
    </g>
    <path
       d="m 60,23 c 1.654,0 3,-1.346 3,-3 V 4 C 63,2.346 61.654,1 60,1 H 53 C 52.06,1 51.163,1.449 50.601,2.2 L 48.5,5 H 40 c -1.654,0 -3,1.346 -3,3 v 4 H 27.949 C 27.438,5.851 22.28,1 16,1 9.383,1 4,6.383 4,13 4,19.279 8.85,24.438 15,24.949 v 6.073 C 6.954,31.248 1,34.168 1,38 v 19 c 0,3.897 7.729,6 15,6 7.271,0 15,-2.103 15,-6 v -6 h 6.051 C 37.565,57.701 43.17,63 50,63 57.168,63 63,57.168 63,50 63,43.17 57.701,37.565 51,37.051 V 23 Z m 0,-2 H 40 c -0.552,0 -1,-0.449 -1,-1 v -9 h 22 v 9 c 0,0.551 -0.448,1 -1,1 z M 40,7 h 9.5 L 52.201,3.399 C 52.388,3.149 52.687,3 53,3 h 7 c 0.552,0 1,0.449 1,1 V 9 H 39 V 8 C 39,7.449 39.448,7 40,7 Z M 6,13 c 0,-1.045 0.163,-2.052 0.461,-3 h 3.841 C 10.117,10.934 10,11.93 10,13 c 0,1.07 0.117,2.066 0.303,3 H 6.461 C 6.163,15.052 6,14.045 6,13 Z m 6,0 c 0,-1.079 0.138,-2.076 0.354,-3 h 7.296 c 0.214,0.923 0.35,1.92 0.35,3 0,1.079 -0.138,2.076 -0.354,3 H 12.35 C 12.136,15.077 12,14.08 12,13 Z M 16.002,3.371 C 16.779,4.161 18.106,5.738 19.02,8 H 12.986 C 13.902,5.744 15.228,4.164 16.002,3.371 Z M 19.014,18 c -0.916,2.257 -2.242,3.837 -3.016,4.629 C 15.221,21.839 13.894,20.262 12.98,18 Z m 2.153,0 h 3.48 c -1.302,2.242 -3.445,3.929 -5.998,4.633 0.875,-1.128 1.846,-2.678 2.518,-4.633 z M 26,13 c 0,1.045 -0.162,2.052 -0.461,3 H 21.698 C 21.883,15.066 22,14.07 22,13 22,11.93 21.883,10.934 21.697,10 h 3.841 C 25.838,10.948 26,11.955 26,13 Z M 24.647,8 h -3.48 C 20.495,6.045 19.524,4.495 18.649,3.367 21.202,4.071 23.345,5.758 24.647,8 Z M 13.351,3.367 C 12.476,4.495 11.505,6.045 10.833,8 H 7.353 C 8.655,5.758 10.798,4.071 13.351,3.367 Z M 7.353,18 h 3.48 c 0.672,1.955 1.643,3.505 2.518,4.633 C 10.798,21.929 8.655,20.242 7.353,18 Z M 16,33 c 7.661,0 13,2.635 13,5 0,2.365 -5.339,5 -13,5 C 8.339,43 3,40.365 3,38 3,35.635 8.339,33 16,33 Z M 3,41.583 C 5.544,43.657 10.298,45 16,45 21.702,45 26.456,43.657 29,41.583 V 45 c 0,1.631 -5.064,4 -13,4 C 8.064,49 3,46.631 3,45 Z m 0,6.524 C 5.767,50.002 10.991,51 16,51 21.009,51 26.233,50.002 29,48.107 V 51 c 0,1.631 -5.064,4 -13,4 C 8.064,55 3,52.631 3,51 Z M 16,61 C 8.064,61 3,58.631 3,57 V 54.107 C 5.767,56.002 10.991,57 16,57 21.009,57 26.233,56.002 29,54.107 V 57 c 0,1.631 -5.064,4 -13,4 z M 42.35,57.888 C 43.265,54.991 45.914,53 49,53 h 2 c 3.088,0 5.737,1.991 6.65,4.888 C 55.668,59.81 52.972,61 50,61 47.028,61 44.332,59.81 42.35,57.888 Z M 50,51 c -2.206,0 -4,-1.794 -4,-4 0,-2.206 1.794,-4 4,-4 2.206,0 4,1.794 4,4 0,2.206 -1.794,4 -4,4 z m 11,-1 c 0,2.27 -0.692,4.381 -1.874,6.135 -1.035,-2.194 -2.9,-3.858 -5.165,-4.639 C 55.208,50.395 56,48.79 56,47 c 0,-3.309 -2.691,-6 -6,-6 -3.309,0 -6,2.691 -6,6 0,1.79 0.792,3.395 2.04,4.496 -2.265,0.782 -4.129,2.446 -5.165,4.639 C 39.692,54.381 39,52.27 39,50 c 0,-6.065 4.935,-11 11,-11 6.065,0 11,4.935 11,11 z M 49,37.051 C 42.63,37.539 37.539,42.63 37.051,49 H 31 V 38 C 31,34.168 25.046,31.248 17,31.022 V 24.949 C 22.819,24.465 27.466,19.819 27.949,14 H 37 v 6 c 0,1.654 1.346,3 3,3 h 9 z"
       data-original="#000000"
       class=""
       style="fill:#000000"
       id="path12"
       inkscape:connector-curvature="0" />
    <path
       d="m 57,5 h 2 v 2 h -2 z"
       data-original="#000000"
       class=""
       style="fill:#000000"
       id="path14"
       inkscape:connector-curvature="0" />
    <path
       d="m 53,5 h 2 v 2 h -2 z"
       data-original="#000000"
       class=""
       style="fill:#000000"
       id="path16"
       inkscape:connector-curvature="0" />
    <path
       d="m 41,17 h 2 v 2 h -2 z"
       data-original="#000000"
       class=""
       style="fill:#000000"
       id="path18"
       inkscape:connector-curvature="0" />
    <path
       d="m 45,17 h 2 v 2 h -2 z"
       data-original="#000000"
       class=""
       style="fill:#000000"
       id="path20"
       inkscape:connector-curvature="0" />
    <path
       d="m 49,17 h 2 v 2 h -2 z"
       data-original="#000000"
       class=""
       style="fill:#000000"
       id="path22"
       inkscape:connector-curvature="0" />
    <path
       d="m 17,12 h 2 v 2 h -2 z"
       data-original="#000000"
       class=""
       style="fill:#000000"
       id="path24"
       inkscape:connector-curvature="0" />
    <path
       d="m 13,12 h 2 v 2 h -2 z"
       data-original="#000000"
       class=""
       style="fill:#000000"
       id="path26"
       inkscape:connector-curvature="0" />
  </g>
</svg>
